z_dist/img/icons/crypto/cosmos-ATOM.svg

<svg width="64" height="64" viewBox="0 0 64 64" fill="none" xmlns="http://www.w3.org/2000/svg">
<rect width="64" height="64" rx="4" fill="#2E3148"/>
<circle cx="31.9999" cy="32.0001" r="18.5679" fill="#1B1E36"/>
<path fill-rule="evenodd" clip-rule="evenodd" d="M25.8107 32.0661C25.8107 16.6112 28.6116 4.08252 32.0658 4.08252C35.52 4.08252 38.3209 16.6112 38.3209 32.0661C38.3209 47.5211 35.52 60.0498 32.0658 60.0498C28.6116 60.0498 25.8107 47.5211 25.8107 32.0661ZM31.7076 58.6021C31.7076 58.6021 32.1026 58.9973 32.4976 58.4705C32.4976 58.4705 34.3531 56.8889 35.6779 49.383C35.6779 49.383 37.399 39.5065 37.1356 30.6835C37.1356 30.6835 37.399 20.5436 34.4901 9.74524C34.4901 9.74524 33.505 6.26466 32.3305 5.43241C32.135 5.29335 31.8678 5.31495 31.6971 5.48361C30.8877 6.28412 28.5089 9.88988 27.2013 25.1536C27.2013 25.1536 26.539 44.38 29.3215 53.3346C29.3215 53.3346 30.1168 56.7589 31.7076 58.6021Z" fill="#6F7390"/>
<path fill-rule="evenodd" clip-rule="evenodd" d="M28.9464 26.6392C42.3585 18.9485 54.6186 15.1428 56.3384 18.14C58.057 21.136 48.5962 29.8008 35.1841 37.4916C21.772 45.1823 9.51065 48.9867 7.79212 45.9908C6.07359 42.9948 15.5343 34.33 28.9464 26.6392ZM8.86912 44.9555C8.86912 44.9555 8.72038 45.4967 9.37881 45.5796H9.37907C9.37907 45.5796 11.6731 46.4027 18.8434 43.8189C18.8434 43.8189 28.2667 40.3989 35.7888 35.7781C35.7888 35.7781 44.7158 30.9597 52.6292 23.0598C52.6292 23.0598 55.1644 20.4742 55.296 19.0406C55.321 18.8011 55.1695 18.5785 54.9376 18.5138C53.8432 18.2125 49.5291 17.9398 35.6401 24.4018C35.6401 24.4018 18.6324 33.3948 12.247 40.2648C12.247 40.2648 9.6768 42.6589 8.86912 44.9555Z" fill="#6F7390"/>
<path fill-rule="evenodd" clip-rule="evenodd" d="M35.2089 26.648C48.5739 34.3966 58.0109 43.1011 56.2777 46.0905C54.5462 49.0851 42.303 45.2321 28.9303 37.4835C15.5576 29.7349 6.12222 21.0355 7.85381 18.041C9.58539 15.0466 21.844 18.8994 35.2089 26.648ZM9.28664 18.443C9.28664 18.443 8.74622 18.5891 9.00222 19.1961L9.00401 19.2028C9.00401 19.2028 9.44229 21.5982 15.276 26.51C15.276 26.51 22.9535 32.9536 30.7177 37.1412C30.7177 37.1412 39.359 42.4494 50.1639 45.3465C50.1639 45.3465 53.6696 46.2395 54.9785 45.6402C55.1974 45.5409 55.313 45.2985 55.2525 45.0659C54.9639 43.9677 53.0388 40.0988 40.4864 31.3152C40.4864 31.3152 24.183 21.1028 15.04 19.0208C15.04 19.0208 11.6792 17.9911 9.28664 18.443Z" fill="#6F7390"/>
<circle cx="31.9999" cy="31.9999" r="3.29216" fill="#B7B9C8"/>
<ellipse cx="45.4978" cy="19.3579" rx="1.9095" ry="1.9753" fill="#B7B9C8"/>
<ellipse cx="14.1562" cy="26.0742" rx="1.9095" ry="1.9753" fill="#B7B9C8"/>
<ellipse cx="28.1152" cy="50.3046" rx="1.90951" ry="1.97529" fill="#B7B9C8"/>
</svg>

<svg width="64" height="64" fill="none" xmlns="http://www.w3.org/2000/svg"><rect width="64" height="64" rx="4" fill="#2E3148"/><circle cx="32" cy="32" r="18.568" fill="#1B1E36"/><path fill-rule="evenodd" clip-rule="evenodd" d="M25.81 32.066c0-15.455 2.802-27.983 6.256-27.983S38.32 16.61 38.32 32.066s-2.8 27.984-6.254 27.984c-3.454 0-6.255-12.529-6.255-27.984zm5.898 26.536s.395.395.79-.131c0 0 1.855-1.582 3.18-9.088 0 0 1.721-9.877 1.458-18.7 0 0 .263-10.14-2.646-20.938 0 0-.985-3.48-2.16-4.313a.494.494 0 00-.633.052c-.81.8-3.188 4.406-4.496 19.67 0 0-.662 19.226 2.12 28.18 0 0 .796 3.425 2.387 5.268z" fill="#6F7390"/><path fill-rule="evenodd" clip-rule="evenodd" d="M28.946 26.64c13.412-7.692 25.673-11.497 27.392-8.5 1.719 2.996-7.742 11.66-21.154 19.352-13.412 7.69-25.673 11.495-27.392 8.499-1.718-2.996 7.742-11.661 21.154-19.352zM8.87 44.955s-.149.54.51.624c0 0 2.294.823 9.464-1.761 0 0 9.424-3.42 16.946-8.04 0 0 8.927-4.82 16.84-12.72 0 0 2.535-2.585 2.667-4.018a.494.494 0 00-.358-.527c-1.095-.302-5.409-.574-19.298 5.888 0 0-17.008 8.993-23.393 15.863 0 0-2.57 2.394-3.378 4.69z" fill="#6F7390"/><path fill-rule="evenodd" clip-rule="evenodd" d="M35.209 26.648C48.574 34.397 58.01 43.101 56.278 46.09c-1.732 2.995-13.975-.858-27.348-8.607C15.558 29.735 6.122 21.037 7.854 18.041c1.731-2.994 13.99.858 27.355 8.607zM9.287 18.443s-.54.146-.285.753l.002.007s.438 2.395 6.272 7.307c0 0 7.677 6.444 15.442 10.631 0 0 8.641 5.308 19.446 8.206 0 0 3.506.892 4.814.293a.494.494 0 00.274-.574c-.288-1.098-2.213-4.967-14.766-13.75 0 0-16.303-10.213-25.446-12.295 0 0-3.36-1.03-5.753-.578z" fill="#6F7390"/><circle cx="32" cy="32" r="3.292" fill="#B7B9C8"/><ellipse cx="45.498" cy="19.358" rx="1.909" ry="1.975" fill="#B7B9C8"/><ellipse cx="14.156" cy="26.074" rx="1.909" ry="1.975" fill="#B7B9C8"/><ellipse cx="28.115" cy="50.305" rx="1.91" ry="1.975" fill="#B7B9C8"/></svg>
